X: 3
T: The Mason's Apron
R: reel
M: 4/4
L: 1/8
K: Gmaj
|:ge|dB~B2 AGEG|DEGA B2AG|EA~A2 BA~A2|(3B^cd ef gage|dB~B2 AGEG|DEGA BGAB|~c3d edeg|GDBA G2:||:dc|BG~G2 eGdG|~G2dG eGdG|ce~e2 ge~e2|degb aged|Bd~d2 ed~d2|GABG AGEG|~c3d edeg|GDBA G2:|


Tune 74	Setting 21511

